src/img/start/phone.svg

<svg width="44" height="44" viewBox="0 0 44 44" fill="none" xmlns="http://www.w3.org/2000/svg">
<path fill-rule="evenodd" clip-rule="evenodd" d="M3.03228 6.99481C3.69822 5.89218 7.36737 1.88161 9.98572 2.00268C10.7684 2.06754 11.4603 2.54103 12.0225 3.09018C13.3133 4.35065 17.0083 9.11793 17.2181 10.1211C17.7283 12.5815 14.7965 13.9998 15.6938 16.4796C17.9813 22.0771 21.9229 26.0185 27.5228 28.3038C30.0006 29.201 31.419 26.2693 33.8795 26.7817C34.8806 26.9914 39.6503 30.6863 40.9108 31.9771C41.4578 32.537 41.9335 33.231 41.9984 34.0137C42.0957 36.7703 37.8362 40.4911 37.006 40.9668C35.0471 42.3678 32.4914 42.344 29.3758 40.8954C20.6818 37.2784 6.78791 23.6468 3.10363 14.6246C1.69391 11.5264 1.59662 8.95361 3.03228 6.99481Z" stroke="white" stroke-width="4" stroke-linecap="round" stroke-linejoin="round"/>
<path opacity="0.4" d="M5.96396 4.72461L9.05659 9.31198" stroke="white" stroke-width="4" stroke-linecap="round" stroke-linejoin="round"/>
<path opacity="0.4" d="M34.3459 34.7724L38.9523 38.3724" stroke="white" stroke-width="4" stroke-linecap="round" stroke-linejoin="round"/>
</svg>

<svg width="44" height="44" fill="none" xmlns="http://www.w3.org/2000/svg"><path clip-rule="evenodd" d="M3.032 6.995c.666-1.103 4.335-5.113 6.954-4.992.782.065 1.474.538 2.037 1.087 1.29 1.26 4.985 6.028 5.195 7.031.51 2.46-2.421 3.879-1.524 6.359 2.287 5.597 6.229 9.538 11.829 11.824 2.478.897 3.896-2.035 6.357-1.522 1 .21 5.77 3.904 7.03 5.195.548.56 1.024 1.254 1.088 2.037.098 2.756-4.162 6.477-4.992 6.953-1.959 1.4-4.515 1.377-7.63-.072-8.694-3.617-22.588-17.248-26.272-26.27-1.41-3.099-1.507-5.671-.072-7.63z" stroke="#fff" stroke-width="4" stroke-linecap="round" stroke-linejoin="round"/><path opacity=".4" d="M5.964 4.725l3.093 4.587m25.289 25.46l4.606 3.6" stroke="#fff" stroke-width="4" stroke-linecap="round" stroke-linejoin="round"/></svg>
